X:1
T:sin nombre nº 7
R:Strathspey
S:Natalie McMasters
H:
N:
D:Solo Album #1
Z:Adrian Scahill
M:4/4
L:1/8
K:D
B>A|F<B Bc dBcA|F<A A>B ce d/2c/2B/2A/2|F<B Bc dcdf|e<cac B2BA:|
|:B<b b>a fedf|e<f a>f e/2d/2c/2B/2 Ac|1B<b b>a fedf|e<cac B2BA:|2\
d<B c/2d/2e/2c/2 fedf|e<cac B2BA|]
